!!!!SEGMENT: pl-cz--d-ii-29--001-007_elsner-jozef--msza-f-op-35-agnus-dei.krn
!!!cenid: 18xx:185
!!!COM: Elsner, Józef
!!!COM-rismID: pe30000957
!!!CDT: 1769/06/01-1854/04/18
!!!CNT: Polish
!!!OPR: Msza F op. 35
!!!OTL: Agnus Dei
!!!OMV: 007
!!!PDT:
!!!AGN: Sacred; Mass
!!!YEC: Copyright 2022 Narodowy Instytut Fryderyka Chopina (https://polishscores.org)
!!!YEM: License CC-BY-4.0 (https://creativecommons.org/licenses/by/4.0)
!!!SMS-siglum: PL-CZ
!!!SMS-shelfmark: D II-29
!!!SMS-shelfwork: 001-007 M
!!!NIFC-rismSourceID: 1001127151
!!!NIFC-rismChildID: 1001127151
!!!NIFC-islandoraID:
!!!URL-pdf-islandora:
!!!URL-scan:
!!!IIIF:
!!!ONB-nifc: UWAGA: części Mszy: Kyrie, Gloria, Graduale, Credo, Offertorium, Sanctus, Agnus Dei
!!!AIN: 1 alto 1 bass 1 organ 1 soprn 1 tenor
!!!OMD:
!!!OMD-mod: Andantino
!!!key: F
**kern	**kern	**dynam	**kern	**text	**mod-text	**text	**mod-text	**text	**mod-text	**text	**mod-text	**dynam	**kern	**text	**mod-text	**text	**mod-text	**text	**mod-text	**text	**mod-text	**dynam	**kern	**text	**mod-text	**text	**mod-text	**text	**mod-text	**text	**mod-text	**dynam	**kern	**text	**mod-text	**text	**mod-text	**text	**mod-text	**text	**mod-text	**dynam
*part5	*part5	*	*part4	*	*	*	*	*	*	*	*	*	*part3	*	*	*	*	*	*	*	*	*	*part2	*	*	*	*	*	*	*	*	*	*part1	*	*	*	*	*	*	*	*	*
*staff6	*staff5	*	*staff4	*	*	*	*	*	*	*	*	*	*staff3	*	*	*	*	*	*	*	*	*	*staff2	*	*	*	*	*	*	*	*	*	*staff1	*	*	*	*	*	*	*	*	*
!LO:MO:mod=*>[A,A1,A,A1,A,A1,A,A2]	!LO:MO:mod=*>[A,A1,A,A1,A,A1,A,A2]	!	!LO:MO:mod=*>[A,A1,A,A1,A,A1,A,A2]	!	!	!	!	!	!	!	!	!	!LO:MO:mod=*>[A,A1,A,A1,A,A1,A,A2]	!	!	!	!	!	!	!	!	!	!LO:MO:mod=*>[A,A1,A,A1,A,A1,A,A2]	!	!	!	!	!	!	!	!	!	!LO:MO:mod=*>[A,A1,A,A1,A,A1,A,A2]	!	!	!	!	!	!	!	!	!
*null	*null	*	*null	*	*	*	*	*	*	*	*	*	*null	*	*	*	*	*	*	*	*	*	*null	*	*	*	*	*	*	*	*	*	*null	*	*	*	*	*	*	*	*	*
!LO:MO:mod=*>A	!LO:MO:mod=*>A	!	!LO:MO:mod=*>A	!	!	!	!	!	!	!	!	!	!LO:MO:mod=*>A	!	!	!	!	!	!	!	!	!	!LO:MO:mod=*>A	!	!	!	!	!	!	!	!	!	!LO:MO:mod=*>A	!	!	!	!	!	!	!	!	!
*null	*null	*	*null	*	*	*	*	*	*	*	*	*	*null	*	*	*	*	*	*	*	*	*	*null	*	*	*	*	*	*	*	*	*	*null	*	*	*	*	*	*	*	*	*
*I"ORGAN	*I"ORGAN	*	*I"BASSO	*	*	*	*	*	*	*	*	*	*I"TENORE	*	*	*	*	*	*	*	*	*	*I"ALTO	*	*	*	*	*	*	*	*	*	*I"CANTO	*	*	*	*	*	*	*	*	*
*mI"Organo	*mI"Organo	*	*mI"Basso	*	*	*	*	*	*	*	*	*	*mI"Tenore	*	*	*	*	*	*	*	*	*	*mI"Alto	*	*	*	*	*	*	*	*	*	*mI"Soprano	*	*	*	*	*	*	*	*	*
*I'org	*I'org	*	*I'B	*	*	*	*	*	*	*	*	*	*I'T	*	*	*	*	*	*	*	*	*	*I'A	*	*	*	*	*	*	*	*	*	*I'S	*	*	*	*	*	*	*	*	*
*Iorgan	*Iorgan	*	*Ibass	*	*	*	*	*	*	*	*	*	*Itenor	*	*	*	*	*	*	*	*	*	*Ialto	*	*	*	*	*	*	*	*	*	*Isoprn	*	*	*	*	*	*	*	*	*
*ICklav	*ICklav	*	*ICvox	*	*	*	*	*	*	*	*	*	*ICvox	*	*	*	*	*	*	*	*	*	*ICvox	*	*	*	*	*	*	*	*	*	*ICvox	*	*	*	*	*	*	*	*	*
*	*	*	*IGcoro	*	*	*	*	*	*	*	*	*	*IGcoro	*	*	*	*	*	*	*	*	*	*IGcoro	*	*	*	*	*	*	*	*	*	*IGcoro	*	*	*	*	*	*	*	*	*
*clefF4	*clefG2	*	*clefF4	*	*	*	*	*	*	*	*	*	*clefC4	*	*	*	*	*	*	*	*	*	*clefC3	*	*	*	*	*	*	*	*	*	*clefC1	*	*	*	*	*	*	*	*	*
*	*	*	*	*	*	*	*	*	*	*	*	*	*mclefGv2	*	*	*	*	*	*	*	*	*	*mclefG2	*	*	*	*	*	*	*	*	*	*mclefG2	*	*	*	*	*	*	*	*	*
*k[b-]	*k[b-]	*	*k[b-]	*	*	*	*	*	*	*	*	*	*k[b-]	*	*	*	*	*	*	*	*	*	*k[b-]	*	*	*	*	*	*	*	*	*	*k[b-]	*	*	*	*	*	*	*	*	*
*F:	*F:	*	*F:	*	*	*	*	*	*	*	*	*	*F:	*	*	*	*	*	*	*	*	*	*F:	*	*	*	*	*	*	*	*	*	*F:	*	*	*	*	*	*	*	*	*
*M3/4	*M3/4	*	*M3/4	*	*	*	*	*	*	*	*	*	*M3/4	*	*	*	*	*	*	*	*	*	*M3/4	*	*	*	*	*	*	*	*	*	*M3/4	*	*	*	*	*	*	*	*	*
=1	=1	=1	=1	=1	=1	=1	=1	=1	=1	=1	=1	=1	=1	=1	=1	=1	=1	=1	=1	=1	=1	=1	=1	=1	=1	=1	=1	=1	=1	=1	=1	=1	=1	=1	=1	=1	=1	=1	=1	=1	=1	=1
*^	*	*	*	*	*	*	*	*	*	*	*	*	*	*	*	*	*	*	*	*	*	*	*	*	*	*	*	*	*	*	*	*	*	*	*	*	*	*	*	*	*	*
*	*	*	*	*	*v:1)	*v:1	*v:2)	*v:2	*v:3)	*v:3	*v:4)	*v:4	*	*	*v:1)	*v:1	*	*v:2	*	*v:3	*	*v:4	*	*	*v:1.)	*v:1	*	*v:2	*	*v:3	*	*v:4	*	*	*v:1.)	*v:1	*	*v:2	*	*v:3	*	*v:4	*
!	!	!LO:TX:a:B:t=Andantino:mod=	!	!	!	!	!	!	!	!	!	!	!	!	!	!	!	!	!	!	!	!	!	!	!	!	!	!	!	!	!	!	!	!LO:TX:a:B:t=Andantino:mod=	!	!	!	!	!	!	!	!	!
4c/	2.F\	4a/	.	4F\	Dzie-	Dzie-	Pa-	Pa-	Nie-	Nie-	Bo-	Bo-	.	4c\	Dzie-	Dzie-	.	Pa-	.	Nie-	.	Bo-	.	4f\	Dzie-	Dzie-	.	Pa-	.	Nie-	.	Bo-	.	4a/	Dzie-	Dzie-	.	Pa-	.	Nie-	.	Bo-	.
4A/	.	4f/	.	4F\	-ci	-ci	-nem	-nem	-chay	-chaj	-ży	-ży	.	4A\	-ci	-ci	.	-nem	.	-chaj	.	-ży	.	4f\	-ci	-ci	.	-nem	.	-chaj	.	-ży	.	4f/	-ci	-ci	.	-nem	.	-chaj	.	-ży	.
4d/	.	4b-/	.	4F\	nie-	nie-	ty	Ty	w_Chry-	w_Chry-	Ba-	Ba-	.	4d\	nie-	nie-	.	Ty	.	w_Chry-	.	Ba-	.	4f\	nie-	nie-	.	Ty	.	w_Chry-	.	Ba-	.	4b-\	nie-	nie-	.	Ty	.	w_Chry-	.	Ba-	.
=2	=2	=2	=2	=2	=2	=2	=2	=2	=2	=2	=2	=2	=2	=2	=2	=2	=2	=2	=2	=2	=2	=2	=2	=2	=2	=2	=2	=2	=2	=2	=2	=2	=2	=2	=2	=2	=2	=2	=2	=2	=2	=2	=2
4.c/	2.F\	4.a/	.	4F\	-go-	-go-	na-	na-	-stu-	-stu-	-ran-	-ran-	.	4.c\	-go-	-go-	.	na-	.	-stu-	.	-ran-	.	4f\	-go-	-go-	.	na-	.	-stu-	.	-ran-	.	4.a\	-go-	-go-	.	na-	.	-stu-	.	-ran-	.
.	.	.	.	4F\	-dne	-dne	-szym	-szym	-sa	-sa	-ku	-ku	.	.	.	.	.	.	.	.	.	.	.	4f\	-dne	-dne	.	-szym	.	-sa	.	-ku	.	.	.	.	.	.	.	.	.	.	.
!LO:SIC:s=(<8B-	!	!	!	!	!	!	!	!	!	!	!	!	!	!	!	!	!	!	!	!	!	!	!	!	!	!	!	!	!	!	!	!	!	!	!	!	!	!	!	!	!	!	!
8B-/	.	(8g/	.	.	.	.	.	.	.	.	.	.	.	8B-\	-dne	-dne	.	-szym	.	-sa	.	-ku	.	.	.	.	.	.	.	.	.	.	.	8g\	-dne	-dne	.	-szym	.	-sa	.	-ku	.
8A/L	.	8f/L	.	4F\	tak	tak	i	i	i-	i-	coś	coś	.	8A\L	tak	tak	.	i	.	i-	.	coś	.	4f\	tak	tak	.	i	.	i-	.	coś	.	8f/L	tak	tak	.	i	.	i-	.	coś	.
!LO:SIC:s=8cJ)	!	!	!	!	!	!	!	!	!	!	!	!	!	!	!	!	!	!	!	!	!	!	!	!	!	!	!	!	!	!	!	!	!	!	!	!	!	!	!	!	!	!	!
8c/J	.	8a/J)	.	.	.	.	.	.	.	.	.	.	.	8c\J	.	.	.	.	.	.	.	.	.	.	.	.	.	.	.	.	.	.	.	8a/J	.	.	.	.	.	.	.	.	.
=3	=3	=3	=3	=3	=3	=3	=3	=3	=3	=3	=3	=3	=3	=3	=3	=3	=3	=3	=3	=3	=3	=3	=3	=3	=3	=3	=3	=3	=3	=3	=3	=3	=3	=3	=3	=3	=3	=3	=3	=3	=3	=3	=3
!	!LO:SIC:v:s=2.C	!	!	!	!	!	!	!	!	!	!	!	!	!	!	!	!	!	!	!	!	!	!	!	!	!	!	!	!	!	!	!	!	!	!	!	!	!	!	!	!	!	!
2.c/	2.F\	4.g 4.e/	.	4C/	wiel-	wiel-	oy-	Oj-	-dzie-	-dzie-	zma-	zma-	.	4c\	wiel-	wiel-	.	Oj-	.	-dzie-	.	zma-	.	4.e\	wiel-	wiel-	.	Oj-	.	-dzie-	.	zma-	.	4.g\	wiel-	wiel-	.	Oj-	.	-dzie-	.	zma-	.
.	.	.	.	4C/	-kiey	-kiej	-cem	-cem	-my	-my	-zał	-zał	.	4c\	-kiey	-kiej	.	-cem	.	-my	.	-zał	.	.	.	.	.	.	.	.	.	.	.	.	.	.	.	.	.	.	.	.	.
!	!	!LO:SIC:s=8a 8f	!	!	!	!	!	!	!	!	!	!	!	!	!	!	!	!	!	!	!	!	!	!	!	!	!	!	!	!	!	!	!	!	!	!	!	!	!	!	!	!	!
.	.	8aL 8f/	.	.	.	.	.	.	.	.	.	.	.	.	.	.	.	.	.	.	.	.	.	8f\	-kiey	-kiej	.	-cem	.	-my	.	-zał	.	8a\	-kiey	-kiej	.	-cem	.	-my	.	-zał	.
!	!	!LO:SIC:s=8b-L 8g	!	!	!	!	!	!	!	!	!	!	!	!	!	!	!	!	!	!	!	!	!	!	!	!	!	!	!	!	!	!	!	!	!	!	!	!	!	!	!	!	!
.	.	8b- 8g/	.	4C/	o-	o-	na	na	przy-	przy-	grzech	grzech	.	4c\	o-	o-	.	na	.	przy-	.	grzech	.	8g\L	o-	o-	.	na	.	przy-	.	grzech	.	8b-\L	o-	o-	.	na	.	przy-	.	grzech	.
.	.	8ccJ 8e/	.	.	.	.	.	.	.	.	.	.	.	.	.	.	.	.	.	.	.	.	.	8e\J	.	.	.	.	.	.	.	.	.	8cc\J	.	.	.	.	.	.	.	.	.
=4	=4	=4	=4	=4	=4	=4	=4	=4	=4	=4	=4	=4	=4	=4	=4	=4	=4	=4	=4	=4	=4	=4	=4	=4	=4	=4	=4	=4	=4	=4	=4	=4	=4	=4	=4	=4	=4	=4	=4	=4	=4	=4	=4
2.c/	2F\	8b-L 8g/	.	4F\	-fia-	-fia-	wie-	wie-	-kła-	-kła-	Swia-	świa-	.	4c\	-fia-	-fia-	.	wie-	.	-kła-	.	świa-	.	8g\L	-fia-	-fia-	.	wie-	.	-kła-	.	świa-	.	8b-\L	-fia-	-fia-	.	wie-	.	-kła-	.	świa-	.
.	.	8aJ 8f/	.	.	.	.	.	.	.	.	.	.	.	.	.	.	.	.	.	.	.	.	.	8f\J	.	.	.	.	.	.	.	.	.	8a\J	.	.	.	.	.	.	.	.	.
!	!	!	!LO:MO:mod=.	!	!	!	!	!	!	!	!	!	!	!	!	!	!	!	!	!	!	!	!	!	!	!	!	!	!	!	!	!	!	!	!	!	!	!	!	!	!	!	!
.	.	4a 4f/	>	4F\	-ry	-ry,	-ki	-ki,	-dy	-dy,	-ta	-ta,	.	4c\	-ry	-ry,	.	-ki,	.	-dy,	.	-ta,	.	4f\	-ry	-ry,	.	-ki,	.	-dy,	.	-ta,	.	4a\	-ry	-ry,	.	-ki,	.	-dy,	.	-ta,	.
!	!	!	!LO:MO:mod=>]	!	!	!	!	!	!	!	!	!	!	!	!	!	!	!	!	!	!	!	!	!	!	!	!	!	!	!	!	!	!	!	!	!	!	!	!	!	!	!	!
.	4E\	4a 4g 4c#X/	]]	4r	.	.	.	.	.	.	.	.	.	4r	.	.	.	.	.	.	.	.	.	4r	.	.	.	.	.	.	.	.	.	4r	.	.	.	.	.	.	.	.	.
*v	*v	*	*	*	*	*	*	*	*	*	*	*	*	*	*	*	*	*	*	*	*	*	*	*	*	*	*	*	*	*	*	*	*	*	*	*	*	*	*	*	*	*	*
=5	=5	=5	=5	=5	=5	=5	=5	=5	=5	=5	=5	=5	=5	=5	=5	=5	=5	=5	=5	=5	=5	=5	=5	=5	=5	=5	=5	=5	=5	=5	=5	=5	=5	=5	=5	=5	=5	=5	=5	=5	=5	=5
2D\	2.a 2.f 2.d/	.	2d 2D\	Z_twe-	z_Twe-	Cho-	cho-	Czy-	czy-	A-	a-	.	2d\	Z_twe-	z_Twe-	.	cho-	.	czy-	.	a-	.	2f\	Z_twe-	z_Twe-	.	cho-	.	czy-	.	a-	.	2a\	Z_twe-	z_Twe-	.	cho-	.	czy-	.	a-	.
4C\	.	.	4c 4C\	-go	-go	-ciaz	-ciaż	-li	-li	-by	-by	.	4d\	-go	-go	.	-ciaż	.	-li	.	-by	.	4f\	-go	-go	.	-ciaż	.	-li	.	-by	.	4a\	-go	-go	.	-ciaż	.	-li	.	-by	.
=6	=6	=6	=6	=6	=6	=6	=6	=6	=6	=6	=6	=6	=6	=6	=6	=6	=6	=6	=6	=6	=6	=6	=6	=6	=6	=6	=6	=6	=6	=6	=6	=6	=6	=6	=6	=6	=6	=6	=6	=6	=6	=6
!	!	!LO:HP:a	!	!	!	!	!	!	!	!	!	!	!	!	!	!	!	!	!	!	!	!	!	!	!	!	!	!	!	!	!	!	!	!	!	!	!	!	!	!	!	!
2BBn/	[2g 2f 2d/	>	2Bn 2BBn\	sto-	sto-	sła-	sła-	w_szczę-	w_szczę-	lud	lud	>	2d\	sto-	sto-	.	sła-	.	w_szczę-	.	lud	>	2f\	sto-	sto-	.	sła-	.	w_szczę-	.	lud	>	2g\	sto-	sto-	.	sła-	.	w_szczę-	.	lud	>
!	!	!LO:MO:mod=.	!	!	!	!	!	!	!	!	!	!LO:MO:mod=.	!	!	!	!	!	!	!	!	!	!LO:MO:mod=.	!	!	!	!	!	!	!	!	!	!LO:MO:mod=.	!	!	!	!	!	!	!	!	!	!LO:MO:mod=.
.	.	]	.	.	.	.	.	.	.	.	.	]	.	.	.	.	.	.	.	.	.	]	.	.	.	.	.	.	.	.	.	]	.	.	.	.	.	.	.	.	.	]
!	!	!LO:DY:a	!	!	!	!	!	!	!	!	!	!LO:DY:rj	!	!	!	!	!	!	!	!	!	!LO:DY:rj	!	!	!	!	!	!	!	!	!	!LO:DY:b:rj	!	!	!	!	!	!	!	!	!	!LO:MO:mod=] p
!	!	!LO:MO:mod=] p	!	!	!	!	!	!	!	!	!	!LO:MO:mod=] p	!	!	!	!	!	!	!	!	!	!LO:MO:mod=] p	!	!	!	!	!	!	!	!	!	!LO:MO:mod=] p	!	!	!	!	!	!	!	!	!	!
4BB-X/	4g] 4e 4c/	p	4B-X 4BB-X\	-łu	-łu	-bi	-bi	-sciu	-ściu	twóy	Twój	p	4c\	-łu	-łu	.	-bi	.	-ściu	.	Twój	p	4e\	-łu	-łu	.	-bi	.	-ściu	.	Twój	p	4g\	-łu	-łu	.	-bi	.	-ściu	.	Twój	p
=7	=7	=7	=7	=7	=7	=7	=7	=7	=7	=7	=7	=7	=7	=7	=7	=7	=7	=7	=7	=7	=7	=7	=7	=7	=7	=7	=7	=7	=7	=7	=7	=7	=7	=7	=7	=7	=7	=7	=7	=7	=7	=7
*	*^	*	*	*	*	*	*	*	*	*	*	*	*	*	*	*	*	*	*	*	*	*	*	*	*	*	*	*	*	*	*	*	*	*	*	*	*	*	*	*	*	*
4AA/	4f 4c/	4ryyyy	]	(4A 4AA/	da-	da-	po-	po-	czy	czy	żył	żył	.	2c\	da-	da-	.	po-	.	czy	.	żył	.	(4f\	da-	da-	.	po-	.	czy	.	żył	.	(4f\	da-	da-	.	po-	.	czy	.	żył	.
4GG/	4g 4e/	2c\	.	4G 4GG/)	.	.	.	.	.	.	.	.	.	.	.	.	.	.	.	.	.	.	.	4e\)	.	.	.	.	.	.	.	.	.	4g\)	.	.	.	.	.	.	.	.	.
4FF/	4a 4f/	.	.	4F 4FF/	-ry	-ry	-błą-	-błą-	w_nie-	w_nie-	bez-	bez-	.	4c\	-ry	-ry	.	-błą-	.	w_nie-	.	bez-	.	4f\	-ry	-ry	.	-błą-	.	w_nie-	.	bez-	.	4a\	-ry	-ry	.	-błą-	.	w_nie-	.	bez-	.
=8	=8	=8	=8	=8	=8	=8	=8	=8	=8	=8	=8	=8	=8	=8	=8	=8	=8	=8	=8	=8	=8	=8	=8	=8	=8	=8	=8	=8	=8	=8	=8	=8	=8	=8	=8	=8	=8	=8	=8	=8	=8	=8	=8
2C/	8.aL 8.f/	4c\	.	4C/	bio-	bio-	-dzie-	-dzie-	-do-	-do-	-pie-	-pie-	.	4c\	bio-	bio-	.	-dzie-	.	-do-	.	-pie-	.	8.f\L	bio-	bio-	.	-dzie-	.	-do-	.	-pie-	.	8.a\L	bio-	bio-	.	-dzie-	.	-do-	.	-pie-	.
.	16gJk 16e/	.	.	.	.	.	.	.	.	.	.	.	.	.	.	.	.	.	.	.	.	.	.	16e\Jk	.	.	.	.	.	.	.	.	.	16g\Jk	.	.	.	.	.	.	.	.	.
!	!LO:SIC:s=(>8gL 8e	!	!	!	!	!	!	!	!	!	!	!	!	!	!	!	!	!	!	!	!	!	!	!	!	!	!	!	!	!	!	!	!	!	!	!	!	!	!	!	!	!	!
.	8gL 8e/	4ryyyy	.	4C/	-rą	-rą,	-my	-my,	-li	-li,	-czny	-czny,	.	4c\	-rą	-rą,	.	-my,	.	-li,	.	-czny,	.	4e\	-rą	-rą,	.	-my,	.	-li,	.	-czny,	.	4g\	-rą	-rą,	.	-my,	.	-li,	.	-czny,	.
!	!LO:SIC:s=8f# 8d#	!	!	!	!	!	!	!	!	!	!	!	!	!	!	!	!	!	!	!	!	!	!	!	!	!	!	!	!	!	!	!	!	!	!	!	!	!	!	!	!	!	!
.	(8f#X 8d#X/	.	.	.	.	.	.	.	.	.	.	.	.	.	.	.	.	.	.	.	.	.	.	.	.	.	.	.	.	.	.	.	.	.	.	.	.	.	.	.	.	.	.
4r	8g/	4e\	.	4r	.	.	.	.	.	.	.	.	.	4r	.	.	.	.	.	.	.	.	.	4r	.	.	.	.	.	.	.	.	.	4r	.	.	.	.	.	.	.	.	.
.	8g#X/J)	.	.	.	.	.	.	.	.	.	.	.	.	.	.	.	.	.	.	.	.	.	.	.	.	.	.	.	.	.	.	.	.	.	.	.	.	.	.	.	.	.	.
*	*v	*v	*	*	*	*	*	*	*	*	*	*	*	*	*	*	*	*	*	*	*	*	*	*	*	*	*	*	*	*	*	*	*	*	*	*	*	*	*	*	*	*	*
!!LO:PB:g=original
=9	=9	=9	=9	=9	=9	=9	=9	=9	=9	=9	=9	=9	=9	=9	=9	=9	=9	=9	=9	=9	=9	=9	=9	=9	=9	=9	=9	=9	=9	=9	=9	=9	=9	=9	=9	=9	=9	=9	=9	=9	=9	=9
*^	*	*	*	*	*	*	*	*	*	*	*	*	*	*	*	*	*	*	*	*	*	*	*	*	*	*	*	*	*	*	*	*	*	*	*	*	*	*	*	*	*	*
4c/	2.F\	4a 4f/	.	4F\	Rę-	rę-	Prze-	prze-	On	On	U-	u-	.	4c\	Rę-	rę-	.	prze-	.	On	.	u-	.	4f\	Rę-	rę-	.	prze-	.	On	.	u-	.	4a\	Rę-	rę-	.	prze-	.	On	.	u-	.
4A/	.	4f/	.	4F\	-ce	-ce	-cie	-cie	nam	nam	-twierdź	-twierdź	.	4A\	-ce	-ce	.	-cie	.	nam	.	-twierdź	.	4f\	-ce	-ce	.	-cie	.	nam	.	-twierdź	.	4f/	-ce	-ce	.	-cie	.	nam	.	-twierdź	.
4d/	.	4b-/	.	4F\	do	do	z pod	spod	po-	po-	w_nas	w_nas	.	4d\	do	do	.	spod	.	po-	.	w_nas	.	4f\	do	do	.	spod	.	po-	.	w_nas	.	4b-\	do	do	.	spod	.	po-	.	w_nas	.
=10	=10	=10	=10	=10	=10	=10	=10	=10	=10	=10	=10	=10	=10	=10	=10	=10	=10	=10	=10	=10	=10	=10	=10	=10	=10	=10	=10	=10	=10	=10	=10	=10	=10	=10	=10	=10	=10	=10	=10	=10	=10	=10	=10
4.c/	2.F\	4.a/	.	4F\	Oy-	Oj-	two-	Two-	-ka-	-ka-	wia-	wia-	.	4.c\	Oy-	Oj-	.	Two-	.	-ka-	.	wia-	.	4f\	Oy-	Oj-	.	Two-	.	-ka-	.	wia-	.	4.a\	Oy-	Oj-	.	Two-	.	-ka-	.	wia-	.
.	.	.	.	4F\	-ca	-ca	-iey	-jej	-zał	-zał	-rę	-rę	.	.	.	.	.	.	.	.	.	.	.	4f\	-ca	-ca	.	-jej	.	-zał	.	-rę	.	.	.	.	.	.	.	.	.	.	.
8B-/	.	8g/	.	.	.	.	.	.	.	.	.	.	.	8B-\	-ca	-ca	.	-jej	.	-zał	.	-rę	.	.	.	.	.	.	.	.	.	.	.	8g\	-ca	-ca	.	-jej	.	-zał	.	-rę	.
8A/L	.	8f/L	.	4F\	u-	u-	nie	nie	i	i	i	i	.	8A\L	u-	u-	.	nie	.	i	.	i	.	4f\	u-	u-	.	nie	.	i	.	i	.	8f\L	u-	u-	.	nie	.	i	.	i	.
8c/J	.	8a/J	.	.	.	.	.	.	.	.	.	.	.	8c\J	.	.	.	.	.	.	.	.	.	.	.	.	.	.	.	.	.	.	.	8a\J	.	.	.	.	.	.	.	.	.
*v	*v	*	*	*	*	*	*	*	*	*	*	*	*	*	*	*	*	*	*	*	*	*	*	*	*	*	*	*	*	*	*	*	*	*	*	*	*	*	*	*	*	*	*
=11	=11	=11	=11	=11	=11	=11	=11	=11	=11	=11	=11	=11	=11	=11	=11	=11	=11	=11	=11	=11	=11	=11	=11	=11	=11	=11	=11	=11	=11	=11	=11	=11	=11	=11	=11	=11	=11	=11	=11	=11	=11	=11
2.c 2.C\	4.g 4.e/	.	4C/	-no-	-no-	wyi-	wyj-	wzo-	wzo-	mi-	mi-	.	4c\	-no-	-no-	.	wyj-	.	wzo-	.	mi-	.	4.e\	-no-	-no-	.	wyj-	.	wzo-	.	mi-	.	4.g\	-no-	-no-	.	wyj-	.	wzo-	.	mi-	.
.	.	.	4C/	-szą	-szą	-dziem	-dziem	-ry	-ry	-łość	-łość	.	4c\	-szą	-szą	.	-dziem	.	-ry	.	-łość	.	.	.	.	.	.	.	.	.	.	.	.	.	.	.	.	.	.	.	.	.
.	8a 8f/	.	.	.	.	.	.	.	.	.	.	.	.	.	.	.	.	.	.	.	.	.	8f\	-szą	-szą	.	-dziem	.	-ry	.	-łość	.	8a\	-szą	-szą	.	-dziem	.	-ry	.	-łość	.
.	8b-L 8g/	.	4C/	po	po	o-	o-	i	i	dla	dla	.	4c\	po	po	.	o-	.	i	.	dla	.	8g\L	po	po	.	o-	.	i	.	dla	.	8b-\L	po	po	.	o-	.	i	.	dla	.
.	8ccJ 8e/	.	.	.	.	.	.	.	.	.	.	.	.	.	.	.	.	.	.	.	.	.	8e\J	.	.	.	.	.	.	.	.	.	8cc\J	.	.	.	.	.	.	.	.	.
=12	=12	=12	=12	=12	=12	=12	=12	=12	=12	=12	=12	=12	=12	=12	=12	=12	=12	=12	=12	=12	=12	=12	=12	=12	=12	=12	=12	=12	=12	=12	=12	=12	=12	=12	=12	=12	=12	=12	=12	=12	=12	=12
*^	*^	*	*	*	*	*	*	*	*	*	*	*	*	*	*	*	*	*	*	*	*	*	*	*	*	*	*	*	*	*	*	*	*	*	*	*	*	*	*	*	*	*
!LO:N:vis=2	!	!	!	!	!	!	!	!	!	!	!	!	!	!	!	!	!	!	!	!	!	!	!	!	!	!	!	!	!	!	!	!	!	!	!	!	!	!	!	!	!	!	!	!
4.c/	4F\	(>8b-L 8g/	4ryyyy	.	4F\	da-	da-	-pie-	-pie-	sla-	śla-	bra-	bra-	.	4c\	da-	da-	.	-pie-	.	śla-	.	bra-	.	8g\L	da-	da-	.	-pie-	.	śla-	.	bra-	.	8b-\L	da-	da-	.	-pie-	.	śla-	.	bra-	.
!	!	!LO:SIC:s=8aJ 8f)	!	!	!	!	!	!	!	!	!	!	!	!	!	!	!	!	!	!	!	!	!	!	!	!	!	!	!	!	!	!	!	!	!	!	!	!	!	!	!	!	!	!
.	.	8aJ 8f/	.	.	.	.	.	.	.	.	.	.	.	.	.	.	.	.	.	.	.	.	.	.	8f\J	.	.	.	.	.	.	.	.	.	8a\J	.	.	.	.	.	.	.	.	.
!	!	!LO:SIC:s=8aL	!LO:N:vis=2.	!	!	!	!	!	!	!	!	!	!	!	!	!	!	!	!	!	!	!	!	!	!	!	!	!	!	!	!	!	!	!	!	!	!	!	!	!	!	!	!	!
.	8F\L	8a/L)	2f\	.	4F\	-ry	-ry,	-ki	-ki,	-dy	-dy,	-ta	-ta,	.	4c\	-ry	-ry,	.	-ki,	.	-dy,	.	-ta,	.	4f\	-ry	-ry,	.	-ki,	.	-dy,	.	-ta,	.	4a\	-ry	-ry,	.	-ki,	.	-dy,	.	-ta,	.
!	!	!LO:SIC:s=(<8a	!	!	!	!	!	!	!	!	!	!	!	!	!	!	!	!	!	!	!	!	!	!	!	!	!	!	!	!	!	!	!	!	!	!	!	!	!	!	!	!	!	!
8F/L	(<8FF\	8a/	.	.	.	.	.	.	.	.	.	.	.	.	.	.	.	.	.	.	.	.	.	.	.	.	.	.	.	.	.	.	.	.	.	.	.	.	.	.	.	.	.	.
8G/	8GG\	8b-/	.	.	4r	.	.	.	.	.	.	.	.	.	4r	.	.	.	.	.	.	.	.	.	4r	.	.	.	.	.	.	.	.	.	4r	.	.	.	.	.	.	.	.	.
!	!LO:SIC:s=8GG#J)	!LO:SIC:s=8bJ)	!	!	!	!	!	!	!	!	!	!	!	!	!	!	!	!	!	!	!	!	!	!	!	!	!	!	!	!	!	!	!	!	!	!	!	!	!	!	!	!	!	!
8G#X/J	8GG#X\J	8bn/J	.	.	.	.	.	.	.	.	.	.	.	.	.	.	.	.	.	.	.	.	.	.	.	.	.	.	.	.	.	.	.	.	.	.	.	.	.	.	.	.	.	.
*v	*v	*	*	*	*	*	*	*	*	*	*	*	*	*	*	*	*	*	*	*	*	*	*	*	*	*	*	*	*	*	*	*	*	*	*	*	*	*	*	*	*	*	*	*
=13	=13	=13	=13	=13	=13	=13	=13	=13	=13	=13	=13	=13	=13	=13	=13	=13	=13	=13	=13	=13	=13	=13	=13	=13	=13	=13	=13	=13	=13	=13	=13	=13	=13	=13	=13	=13	=13	=13	=13	=13	=13	=13	=13
!	!	!	!	!	!	!	!	!	!	!	!	!	!	!	!	!	!	!	!	!	!	!	!	!LO:MO:mod=2f	!	!	!	!	!	!	!	!	!	!	!	!	!	!	!	!	!	!	!
2.A 2.AA/)	2cc/	2.f\	.	2A 2AA\	J	i	Gdy	gdy	Jak	jak	Day	daj	.	2f\	J	i	.	gdy	.	jak	.	daj	.	2.f\	J_z_u-	i	.	gdy	.	jak	.	daj	.	2cc\	J	i	.	gdy	.	jak	.	daj	.
!	!	!	!	!	!	!	!	!	!	!	!	!	!	!	!	!	!	!	!	!	!	!	!	!LO:TX:t=P:problem:brak 4f	!	!	!	!	!	!	!	!	!	!LO:SIC:v:s=4cc#	!	!	!	!	!	!	!	!	!
!	!	!	!	!	!	!	!	!	!	!	!	!	!	!	!	!	!	!	!	!	!	!	!	!LO:MO:null:mod=4f@	!	!	!	!	!	!	!	!	!	!	!	!	!	!	!	!	!	!	!
.	4cc#X/	.	.	4A 4AA\	z_u-	z_u-	cię	Cię	żyć	żyć	nam	nam	.	8f\L	z_u-	z_u-	.	Cię	.	żyć	.	nam	.	.	.	z_u-	.	Cię	.	żyć	.	nam	.	4cc\	z_u-	z_u-	.	Cię	.	żyć	.	nam	.
.	.	.	.	.	.	.	.	.	.	.	.	.	.	8e\J	.	.	.	.	.	.	.	.	.	.	.	.	.	.	.	.	.	.	.	.	.	.	.	.	.	.	.	.	.
*	*v	*v	*	*	*	*	*	*	*	*	*	*	*	*	*	*	*	*	*	*	*	*	*	*	*	*	*	*	*	*	*	*	*	*	*	*	*	*	*	*	*	*	*
=14	=14	=14	=14	=14	=14	=14	=14	=14	=14	=14	=14	=14	=14	=14	=14	=14	=14	=14	=14	=14	=14	=14	=14	=14	=14	=14	=14	=14	=14	=14	=14	=14	=14	=14	=14	=14	=14	=14	=14	=14	=14	=14
2.B- 2.BB-/	2dd 2f/	.	2B- 2BB-\	-fno-	-fno-	po-	po-	we-	we-	po-	po-	.	2d\	-fno-	-fno-	.	po-	.	we-	.	po-	.	2f\	-fno-	-fno-	.	po-	.	we-	.	po-	.	(4.dd\	-fno-	-fno-	.	po-	.	we-	.	po-	.
!	!	!	!	!	!	!	!	!	!	!	!	!	!	!	!	!	!	!	!	!	!	!	!	!	!	!	!	!	!	!	!	!	!LO:SIC:s=8ee)	!	!	!	!	!	!	!	!	!
.	.	.	.	.	.	.	.	.	.	.	.	.	.	.	.	.	.	.	.	.	.	.	.	.	.	.	.	.	.	.	.	.	8ee\	.	.	.	.	.	.	.	.	.
.	8ddL 8f/	.	4B- 4BB-\	-ścią	-ścią	-śród	-śród	-dług	-dług	-kóy	-kój	.	4d\	-ścią	-ścią	.	-śród	.	-dług	.	-kój	.	8f\L	-ścią	-ścią	.	-śród	.	-dług	.	-kój	.	8ff\L	-ścią	-ścią	.	-śród	.	-dług	.	-kój	.
!	!	!	!	!	!	!	!	!	!	!	!	!	!	!	!	!	!	!	!	!	!	!	!	!	!	!	!	!	!	!	!	!	!LO:SIC:s=16ddL	!	!	!	!	!	!	!	!	!
.	8b-J 8g 8d/	.	.	.	.	.	.	.	.	.	.	.	.	.	.	.	.	.	.	.	.	.	8g\J	.	.	.	.	.	.	.	.	.	16dd\L)	.	.	.	.	.	.	.	.	.
.	.	.	.	.	.	.	.	.	.	.	.	.	.	.	.	.	.	.	.	.	.	.	.	.	.	.	.	.	.	.	.	.	16b-\JJ	.	.	.	.	.	.	.	.	.
=15	=15	=15	=15	=15	=15	=15	=15	=15	=15	=15	=15	=15	=15	=15	=15	=15	=15	=15	=15	=15	=15	=15	=15	=15	=15	=15	=15	=15	=15	=15	=15	=15	=15	=15	=15	=15	=15	=15	=15	=15	=15	=15
*^	*	*	*^	*	*	*	*	*	*	*	*	*	*	*	*	*	*	*	*	*	*	*	*	*	*	*	*	*	*	*	*	*	*	*	*	*	*	*	*	*	*	*
2c/	2.C/	2a 2f/	.	2c 2C\	2ryyyy	i	i	nas	nas	Oy-	Oj-	po-	po-	.	2c\	i	i	.	nas	.	Oj-	.	po-	.	2f\	i	i	.	nas	.	Oj-	.	po-	.	2a\	i	i	.	nas	.	Oj-	.	po-	.
!	!	!	!	!	!LO:MO:mod=4ryyyy	!	!	!	!	!	!	!	!	!	!	!	!	!	!	!	!	!	!	!	!	!	!	!	!	!	!	!	!	!	!	!	!	!	!	!	!	!	!	!
8.B-/L	.	8.gL 8.e/	.	4C/	4C\	z_po-	z_po-	czu-	czu-	-ca	-ca	-kóy	-kój	.	8.B-\L	z_po-	z_po-	.	czu-	.	-ca	.	-kój	.	4e\	z_po-	z_po-	.	czu-	.	-ca	.	-kój	.	8.g\L	z_po-	z_po-	.	czu-	.	-ca	.	-kój	.
16c/Jk	.	16a/Jk	.	.	.	.	.	.	.	.	.	.	.	.	16c\Jk	.	.	.	.	.	.	.	.	.	.	.	.	.	.	.	.	.	.	.	16a\Jk	.	.	.	.	.	.	.	.	.
*v	*v	*	*	*v	*v	*	*	*	*	*	*	*	*	*	*	*	*	*	*	*	*	*	*	*	*	*	*	*	*	*	*	*	*	*	*	*	*	*	*	*	*	*	*	*
=16	=16	=16	=16	=16	=16	=16	=16	=16	=16	=16	=16	=16	=16	=16	=16	=16	=16	=16	=16	=16	=16	=16	=16	=16	=16	=16	=16	=16	=16	=16	=16	=16	=16	=16	=16	=16	=16	=16	=16	=16	=16	=16
!LO:MO:mod=!LO&colon;TX&colon;t=1. 2. 3.	!	!	!	!	!	!	!	!	!	!	!	!	!	!	!	!	!	!	!	!	!	!	!	!	!	!	!	!	!	!	!	!	!	!	!	!	!	!	!	!	!	!
!null	!	!	!	!	!	!	!	!	!	!	!	!	!	!	!	!	!	!	!	!	!	!	!	!	!	!	!	!	!	!	!	!	!	!	!	!	!	!	!	!	!	!
!LO:MO:mod=*>A1	!LO:MO:mod=*>A1	!	!LO:MO:mod=*>A1	!	!	!	!	!	!	!	!	!	!LO:MO:mod=*>A1	!	!	!	!	!	!	!	!	!	!LO:MO:mod=*>A1	!	!	!	!	!	!	!	!	!	!LO:MO:mod=*>A1	!	!	!	!	!	!	!	!	!
*null	*null	*	*null	*	*	*	*	*	*	*	*	*	*null	*	*	*	*	*	*	*	*	*	*null	*	*	*	*	*	*	*	*	*	*null	*	*	*	*	*	*	*	*	*
2F 2FF\	8.gL 8.e 8.B-</	.	4F\	-ko-	-ko-	-ie-	-je-	wo-	wo-	wie-	.	.	8.B-\L	-ko-	-ko-	.	-je-	.	wo-	.	.	.	8.e\L	-ko-	-ko-	.	-je-	.	wo-	.	.	.	8.g/L	-ko-	-ko-	.	-je-	.	wo-	.	.	.
.	16fJk 16c 16A</	.	.	.	.	.	.	.	.	.	.	.	16A\Jk	.	.	.	.	.	.	.	.	.	16f\Jk	.	.	.	.	.	.	.	.	.	16f/Jk	.	.	.	.	.	.	.	.	.
!	!LO:TX:a:t=2 3 4:note=pod łukiem:mod=	!	!	!	!	!	!	!	!	!	!	!	!	!	!	!	!	!	!	!	!	!	!	!	!	!	!	!	!	!	!	!	!	!	!	!	!	!	!	!	!	!
.	8fL 8c 8A</	.	4F\	-rą	-rą.	-my	-my.	-li	-li.	-czny.	.	.	4A\	-rą	-rą.	.	-my.	.	-li.	.	.	.	4f\	-rą	-rą.	.	-my.	.	-li.	.	.	.	4f/	-rą	-rą.	.	-my.	.	-li.	.	.	.
.	(16c/L	.	.	.	.	.	.	.	.	.	.	.	.	.	.	.	.	.	.	.	.	.	.	.	.	.	.	.	.	.	.	.	.	.	.	.	.	.	.	.	.	.
.	16d/JJ	.	.	.	.	.	.	.	.	.	.	.	.	.	.	.	.	.	.	.	.	.	.	.	.	.	.	.	.	.	.	.	.	.	.	.	.	.	.	.	.	.
4r	16e/LL	.	4r	.	.	.	.	.	.	.	.	.	4r	.	.	.	.	.	.	.	.	.	4r	.	.	.	.	.	.	.	.	.	4r	.	.	.	.	.	.	.	.	.
.	16f/	.	.	.	.	.	.	.	.	.	.	.	.	.	.	.	.	.	.	.	.	.	.	.	.	.	.	.	.	.	.	.	.	.	.	.	.	.	.	.	.	.
.	16g/	.	.	.	.	.	.	.	.	.	.	.	.	.	.	.	.	.	.	.	.	.	.	.	.	.	.	.	.	.	.	.	.	.	.	.	.	.	.	.	.	.
.	16g#X/JJ)	.	.	.	.	.	.	.	.	.	.	.	.	.	.	.	.	.	.	.	.	.	.	.	.	.	.	.	.	.	.	.	.	.	.	.	.	.	.	.	.	.
!LO:MO:mod==17&colon;|!	!LO:MO:mod==17&colon;|!	!LO:MO:mod==17&colon;|!	!LO:MO:mod==17&colon;|!	!LO:MO:mod==17&colon;|!	!LO:MO:mod==17&colon;|!	!LO:MO:mod==17&colon;|!	!LO:MO:mod==17&colon;|!	!LO:MO:mod==17&colon;|!	!LO:MO:mod==17&colon;|!	!LO:MO:mod==17&colon;|!	!LO:MO:mod==17&colon;|!	!LO:MO:mod==17&colon;|!	!LO:MO:mod==17&colon;|!	!LO:MO:mod==17&colon;|!	!LO:MO:mod==17&colon;|!	!LO:MO:mod==17&colon;|!	!LO:MO:mod==17&colon;|!	!LO:MO:mod==17&colon;|!	!LO:MO:mod==17&colon;|!	!LO:MO:mod==17&colon;|!	!LO:MO:mod==17&colon;|!	!LO:MO:mod==17&colon;|!	!LO:MO:mod==17&colon;|!	!LO:MO:mod==17&colon;|!	!LO:MO:mod==17&colon;|!	!LO:MO:mod==17&colon;|!	!LO:MO:mod==17&colon;|!	!LO:MO:mod==17&colon;|!	!LO:MO:mod==17&colon;|!	!LO:MO:mod==17&colon;|!	!LO:MO:mod==17&colon;|!	!LO:MO:mod==17&colon;|!	!LO:MO:mod==17&colon;|!	!LO:MO:mod==17&colon;|!	!LO:MO:mod==17&colon;|!	!LO:MO:mod==17&colon;|!	!LO:MO:mod==17&colon;|!	!LO:MO:mod==17&colon;|!	!LO:MO:mod==17&colon;|!	!LO:MO:mod==17&colon;|!	!LO:MO:mod==17&colon;|!	!LO:MO:mod==17&colon;|!
=17|!	=17|!	=17|!	=17|!	=17|!	=17|!	=17|!	=17|!	=17|!	=17|!	=17|!	=17|!	=17|!	=17|!	=17|!	=17|!	=17|!	=17|!	=17|!	=17|!	=17|!	=17|!	=17|!	=17|!	=17|!	=17|!	=17|!	=17|!	=17|!	=17|!	=17|!	=17|!	=17|!	=17|!	=17|!	=17|!	=17|!	=17|!	=17|!	=17|!	=17|!	=17|!	=17|!
!LO:MO:mod=!LO&colon;TX&colon;t=4.	!	!	!	!	!	!	!	!	!	!	!	!	!	!	!	!	!	!	!	!	!	!	!	!	!	!	!	!	!	!	!	!	!	!	!	!	!	!	!	!	!	!
!null	!	!	!	!	!	!	!	!	!	!	!	!	!	!	!	!	!	!	!	!	!	!	!	!	!	!	!	!	!	!	!	!	!	!	!	!	!	!	!	!	!	!
!LO:MO:mod=*>A2	!LO:MO:mod=*>A2	!	!LO:MO:mod=*>A2	!	!	!	!	!	!	!	!	!	!LO:MO:mod=*>A2	!	!	!	!	!	!	!	!	!	!LO:MO:mod=*>A2	!	!	!	!	!	!	!	!	!	!LO:MO:mod=*>A2	!	!	!	!	!	!	!	!	!
*null	*null	*	*null	*	*	*	*	*	*	*	*	*	*null	*	*	*	*	*	*	*	*	*	*null	*	*	*	*	*	*	*	*	*	*null	*	*	*	*	*	*	*	*	*
!	!	!	!LO:MO:mod=4F@	!	!	!	!	!	!	!	!	!	!LO:MO:mod=8.B-L@	!	!	!	!	!	!	!	!	!	!LO:MO:mod=8.eL@	!	!	!	!	!	!	!	!	!	!LO:MO:mod=8.gL@	!	!	!	!	!	!	!	!	!
2F 2FF\	8.gL 8.e 8.B-</	.	2.ryy	.	.	.	.	.	.	.	wie-	.	2.ryy	.	.	.	.	.	.	.	wie-	.	2.ryy	.	.	.	.	.	.	.	wie-	.	2.ryy	.	.	.	.	.	.	.	wie-	.
!	!	!	!	!	!	!	!	!	!	!	!	!	!LO:MO:null:mod=16AJk@	!	!	!	!	!	!	!	!	!	!LO:MO:null:mod=16fJk@	!	!	!	!	!	!	!	!	!	!LO:MO:null:mod=16fJk@	!	!	!	!	!	!	!	!	!
.	16fJk 16c 16A</	.	.	.	.	.	.	.	.	.	.	.	.	.	.	.	.	.	.	.	.	.	.	.	.	.	.	.	.	.	.	.	.	.	.	.	.	.	.	.	.	.
!	!LO:TX:a:t=fine:note=pod łukiem:mod=	!	!LO:MO:null:mod=4F@	!	!	!	!	!	!	!	!	!	!LO:MO:null:mod=4A@	!	!	!	!	!	!	!	!	!	!LO:MO:null:mod=4f@	!	!	!	!	!	!	!	!	!	!LO:MO:null:mod=4f@	!	!	!	!	!	!	!	!	!
.	4f 4c 4A</	.	.	.	.	.	.	.	.	.	-czny.	.	.	.	.	.	.	.	.	.	-czny.	.	.	.	.	.	.	.	.	.	-czny.	.	.	.	.	.	.	.	.	.	-czny.	.
!	!	!	!LO:MO:null:mod=4r@	!	!	!	!	!	!	!	!	!	!LO:MO:null:mod=4r@	!	!	!	!	!	!	!	!	!	!LO:MO:null:mod=4r@	!	!	!	!	!	!	!	!	!	!LO:MO:null:mod=4r@	!	!	!	!	!	!	!	!	!
4r	4r	.	.	.	.	.	.	.	.	.	.	.	.	.	.	.	.	.	.	.	.	.	.	.	.	.	.	.	.	.	.	.	.	.	.	.	.	.	.	.	.	.
==	==	==	==	==	==	==	==	==	==	==	==	==	==	==	==	==	==	==	==	==	==	==	==	==	==	==	==	==	==	==	==	==	==	==	==	==	==	==	==	==	==	==
*-	*-	*-	*-	*-	*-	*-	*-	*-	*-	*-	*-	*-	*-	*-	*-	*-	*-	*-	*-	*-	*-	*-	*-	*-	*-	*-	*-	*-	*-	*-	*-	*-	*-	*-	*-	*-	*-	*-	*-	*-	*-	*-
!!!system-decoration: [vox]{(klav)}
!!!RDF**kern: > = above
!!!RDF**kern: < = below
!!LO:MO:mod
!! !!!RDF**kern: @ = marked note, color=grey
!!LO:MO:end
!!!filter-modern: shed -e "s/LO:N:/LO:n:$1/L" | shed -e "s/LO:DY:(a|b|rj)/LO:dy:$1/L; s/LO:HP:(a|b|rj)/LO:dy:$1/L" | shed -e "s/TX(.*):t=P:/tx$1:t=P:/LG" | shed -k -e "s/([^a-gA-Gn#X-])[<>]/$1/g" | sic -sq | modori -m | autostem -r | shed -e "s/yy//
!!!ENC: Anna Matuszewska
!!!END: 2020-04-02
!!!EED: Andrzej Kubiczek
!!!EEV: 2022-12-01
!!!ENC-modern: Andrzej Kubiczek
!!!END-modern: 2022-12-01
